X:41
T:The BallyDesmond Polka #1
T:AKA The BallyDesmond Polka
M:2/4
L:1/8
K:G
|:A3/2B/ AG|EF GE|A3/2B/ AG|Ad d/e/d/c/|A3/2B/ AG|EF G2|AB cE|ED D2:|
Ad d2|ed c2|ed cd|ea a/b/a/g/|ed c2|ed c2|A3/2B/ cd|efg3/2G/|ed cd|
eA cd|e3/2d/ cd|ea a/b/a/g/|e/f/g d3/2B/|ce d3/2B/|AB cE|ED D2||
